gtk/src/default/unity/close_dash_disabled.svg

<?xml version="1.0" encoding="UTF-8" standalone="no"?>
<svg
   xmlns:dc="http://purl.org/dc/elements/1.1/"
   xmlns:cc="http://creativecommons.org/ns#"
   xmlns:rdf="http://www.w3.org/1999/02/22-rdf-syntax-ns#"
   xmlns:svg="http://www.w3.org/2000/svg"
   xmlns="http://www.w3.org/2000/svg"
   xmlns:sodipodi="http://sodipodi.sourceforge.net/DTD/sodipodi-0.dtd"
   xmlns:inkscape="http://www.inkscape.org/namespaces/inkscape"
   width="24"
   height="24"
   version="1.1"
   viewBox="0 0 6.3499636 6.3499636"
   id="svg4636"
   sodipodi:docname="close_dash_disabled.svg"
   inkscape:version="1.0.2 (e86c870879, 2021-01-15)">
  <metadata
     id="metadata4642">
    <rdf:RDF>
      <cc:Work
         rdf:about="">
        <dc:format>image/svg+xml</dc:format>
        <dc:type
           rdf:resource="http://purl.org/dc/dcmitype/StillImage" />
        <dc:title></dc:title>
      </cc:Work>
    </rdf:RDF>
  </metadata>
  <defs
     id="defs4640" />
  <sodipodi:namedview
     pagecolor="#f9f9f9"
     bordercolor="#666666"
     borderopacity="1"
     objecttolerance="10"
     gridtolerance="10"
     guidetolerance="10"
     inkscape:pageopacity="0"
     inkscape:pageshadow="2"
     inkscape:window-width="1301"
     inkscape:window-height="744"
     id="namedview4638"
     showgrid="true"
     inkscape:zoom="30.341309"
     inkscape:cx="11.685857"
     inkscape:cy="9.8749984"
     inkscape:window-x="65"
     inkscape:window-y="24"
     inkscape:window-maximized="1"
     inkscape:current-layer="g4634"
     inkscape:document-rotation="0">
    <inkscape:grid
       type="xygrid"
       id="grid5187" />
  </sodipodi:namedview>
  <g
     transform="translate(0.26456383,-290.915)"
     id="g4634">
    <circle
       cx="2.9103999"
       cy="294.09"
       r="2.6458001"
       id="circle4626"
       style="fill:none;stroke-width:0.66123003" />
    <g
       transform="matrix(0.6922639,-0.69225987,0.6922639,0.69225987,-202.69389,92.516372)"
       id="g4632"
       style="fill:#f9f9f9;stroke-width:0.28984">
      <path
         id="rect4628"
         style="stroke-width:1.07247"
         d="M 8.1914062 7.5 L 7.5 8.1914062 L 11.308594 12 L 7.5 15.806641 L 8.1914062 16.5 L 12 12.691406 L 15.808594 16.5 L 16.5 15.808594 L 12.691406 12 L 16.5 8.1914062 L 15.806641 7.5 L 12 11.308594 L 8.1914062 7.5 z "
         transform="matrix(0.19109896,0.19109896,-0.19110007,0.19110007,2.9104097,289.506)" />
    </g>
  </g>
</svg>

<svg width="24" height="24" version="1.1" viewBox="0 0 6.35 6.35" xmlns="http://www.w3.org/2000/svg">
 <g transform="translate(.26456 -290.92)">
  <circle cx="2.9104" cy="294.09" r="2.6458" fill="none" stroke-width=".66123"/>
  <g transform="matrix(.69226 -.69226 .69226 .69226 -202.69 92.516)" fill="#f9f9f9" stroke-width=".28984">
   <path transform="matrix(.1911 .1911 -.1911 .1911 2.9104 289.51)" d="m8.1914 7.5-0.69141 0.69141 3.8086 3.8086-3.8086 3.8066 0.69141 0.69336 3.8086-3.8086 3.8086 3.8086 0.69141-0.69141-3.8086-3.8086 3.8086-3.8086-0.69336-0.69141-3.8066 3.8086-3.8086-3.8086z" opacity=".5" stroke-width="1.0725"/>
  </g>
 </g>
</svg>
